X:1
T:[ID 2-73b]
T:[ID 2-73b]
T:Bezeichnung standardisiert: Englischer Englisch
T:Urheber unbekannt Datum in der hier transkribierten schriftlichen Quelle: 1767
C:Urheber unbekannt
C:Datum in der hier transkribierten schriftlichen Quelle: 1767
L:1/8
M:2/4
K:G
V:1 treble 
V:1
 gdBG | gdBG | AA/B/ cB | A2 A2 | gdBG | gdBG | AA/B/ cA | G2 G,2 :| %8

